X:25
T:Mrs McLeod . ST.25
M:4/4
L:1/8
Q:1/2=100
C:”- A Popular Dance”
S:Anonymous Staffordshire MS, Early 19thC.
R:.Reel
O:England
A:Staffordshire
Z:vmp.Tim Willets
K:D
B|A2a2fefa|c2cBc2c>B|A2a2 fefa|B2 BA B2Bc|!
A2a2fefa|c2cBc2ce|fgfef2eg|a2ecB3||!
“^cr”c| AAcA ecce|c2cBc2a2|AAcA ecce|B2BAB3c|!
AAcA ecca|c2cBc2ce|f2fef2eg|a2ecB3|]

